X: 16487
T: Hail To The Chief
R: hornpipe
M: 4/4
K: Dmajor
A2 B>c d2 c>B|A>BA>F E2 D2|A2 d>e f2 e>d|e>de>f edcB|
A2 B>c d2 c>B|A>BA>F E2 D2|A2 d>c B>d A>F|A2 d>e d2 z2|
f2 f>f f2 g>f|e>def e2 A2|f2 f>f f2 e>d|e2 a>a a>gf>e|
d2 d>c B>c d>B|A2d>e f2 d2|B2 d>B A>BAF|A2 d>e d2 z2||
D2 d>B A>F D2|E2 e>f e>D E2|FAde f2 ed|B<d AF E4|
D2 d>B A>F D2|E>e e>f e>d B2|A>A dc AF AB|A2 d>d d2 z2||

